X: 19018
T: International Schottische, The
R: barndance
M: 4/4
K: Gmajor
M:2/4
|:B/c/|db ca|Bg g/d/B/G/|Fe e/c/A/F/|G/B/A/c/ B/d/c/e/|
db ca|Bg g/d/B/G/|Fe e/c/A/F/|GB G:|
|:A/G/|F/G/A/B/ c/d/e/f/|gB d2|eA c2|dG B2|
F/G/A/B/ c/d/e/f/|gB d2|eA/B/ cF/G/|AG G:|
|:B|dB/d/ gf|fA/c/ e2|dF/A/ ed|dG/A/ B2|
dB/d/ gf|fA/c/ e2|dF/A/ e/d/c/A/|GB G:|

